rospo-icon-theme-classic-common/22x22/places/folder-black-gnome.svg

<svg height="22" width="22" xmlns="http://www.w3.org/2000/svg"><rect height="12" opacity=".2" rx="1" width="20" x="1" y="8.5"/><path d="m1 16c0 .554.446 1 1 1h18c .554 0 1-.446 1-1v-11c0-.554-.446-1-1-1h-10v-1c0-.554-.446-1-1-1h-7c-.554 0-1 .446-1 1" fill="#3f3f3f"/><rect height="12" opacity=".2" rx="1" width="20" x="1" y="7.5"/><rect fill="#dcdcdc" height="8" rx="1" width="16" x="3" y="6"/><rect fill="#4f4f4f" height="12" rx="1" width="20" x="1" y="8"/><path d="m2 2c-.554 0-1 .446-1 1v .5c0-.554.446-1 1-1h7c .554 0 1 .446 1 1v-.5c0-.554-.446-1-1-1zm8 2v .5h10c .554 0 1 .446 1 1v-.5c0-.554-.446-1-1-1z" fill="#fff" opacity=".1"/><path d="m14.084 9c-2.221 0-2.638 3-1.389 3 1.25 0 3.61-3 1.389-3zm-3.471.5c-.023 0-.048.0025-.074.0059-.8475.136-.5485 1.9601-.098 1.9941.437.033.913-1.9931.174-2zm-1.5442.5c-.0604-.0047-.1268.009-.2012.047-.7932.401-.1198 2.059.3242 1.947.4031-.101.4598-1.948-.123-1.994zm-1.1055 1c-.0707-.003-.1468.029-.2285.105-.6518.615.2199 2.102.6035 1.872.3354-.202.1206-1.954-.375-1.977zm4.0427 1c-1.556-.029-3.6086.829-3.9587 2.551-.3787 1.863 1.5626 4.449 3.5857 4.449.995 0 2.142-1.186 2.357-2.438.164-.953-2.03-.572-1.955.059.09.756-.505 1.331-1.088.844-1.8558-1.553 3.175-2.328 2.85-4.449-.102-.661-.858-.997-1.791-1.014z" fill="#c2c2c2"/></svg>

<svg xmlns="http://www.w3.org/2000/svg" width="22" height="22" version="1">
 <rect style="opacity:0.2" width="20" height="12" x="1" y="8.5" rx="1" ry="1"/>
 <path style="fill:#3f3f3f" d="M 1,16 C 1,16.554 1.446,17 2,17 H 20 C 20.554,17 21,16.554 21,16 V 5 C 21,4.446 20.554,4 20,4 H 10 V 3 C 10,2.446 9.554,2 9,2 H 2 C 1.446,2 1,2.446 1,3"/>
 <rect style="opacity:0.2" width="20" height="12" x="1" y="7.5" rx="1" ry="1"/>
 <rect style="fill:#dcdcdc" width="16" height="8" x="3" y="6" rx="1" ry="1"/>
 <rect style="fill:#4f4f4f" width="20" height="12" x="1" y="8" rx="1" ry="1"/>
 <path style="opacity:0.1;fill:#ffffff" d="M 2,2 C 1.446,2 1,2.446 1,3 V 3.5 C 1,2.946 1.446,2.5 2,2.5 H 9 C 9.554,2.5 10,2.946 10,3.5 V 3 C 10,2.446 9.554,2 9,2 Z M 10,4 V 4.5 H 20 C 20.554,4.5 21,4.946 21,5.5 V 5 C 21,4.446 20.554,4 20,4 Z"/>
 <path style="fill:#c2c2c2" d="M 14.084,9 C 11.863,9 11.446,12 12.695,12 13.945,12 16.305,9 14.084,9 Z M 10.613,9.5 C 10.59,9.5 10.565,9.5025 10.539,9.5059 9.6915,9.6419 9.9905,11.466 10.441,11.5 10.878,11.533 11.354,9.5069 10.615,9.5 Z M 9.0688,10 C 9.0084,9.9953 8.942,10.009 8.8676,10.047 8.0744,10.448 8.7478,12.106 9.1918,11.994 9.5949,11.893 9.6516,10.046 9.0688,10 Z M 7.9633,11 C 7.8926,10.997 7.8165,11.029 7.7348,11.105 7.083,11.72 7.9547,13.207 8.3383,12.977 8.6737,12.775 8.4589,11.023 7.9633,11 Z M 12.006,12 C 10.45,11.971 8.3974,12.829 8.0473,14.551 7.6686,16.414 9.6099,19 11.633,19 12.628,19 13.775,17.814 13.99,16.562 14.154,15.609 11.96,15.99 12.035,16.621 12.125,17.377 11.53,17.952 10.947,17.465 9.0912,15.912 14.122,15.137 13.797,13.016 13.695,12.355 12.939,12.019 12.006,12.002 Z"/>
</svg>
